!!!OTL: 119b. Das Schwabentoechterlein.
!!!ODT: 1844
!!!ARE: Europa, Mitteleuropa, Deutschland, Torgau
!!!SCT: E0119A
!!!TXL: @@DE
!!!YEM: Copyright 1995, estate of Helmut Schaffrath.
**kern	**text
*ICvox	*
*M6/8	*
*k[f#]	*
*G:	*
!LO:TX:a:t=Munter.	!
!LO:TX:a:t=Aus Torgau 1844.	!
{8d	Es
=1	=1
4g	hatt'
8g	ein
4f#	Schwab
8f#	ein
=2	=2
4g	Töch-
8d	-ter-
4d}	-lein,
{8d	die
=3	=3
4e	woll-
8f#	-te
4g	nicht
8e	mehr
=4	=4
(4e	die-
8d)	.
4d}	-nen,
{8d	die
=5	=5
4d	woll-
8cc	-te
4cc	Hut
8d	und
=6	=6
4d	Man-
8b	-tel
4b}	hab'n
{8g	und
=7	=7
4f#	ein
8g	Paar
4a	Schuh
8f#	mit
=8	=8
(4a	Schnü-
8g)	.
4g}	-ren.
{8d	die
=9	=9
4d	woll-
8cc	-te
4cc	Hut
8d	und
=10	=10
4d	Man-
8b	-tel
4b}	hab'n
{8g	und
=11	=11
4f#	ein
8g	Paar
4a	Schuh
8f#	mit
=12	=12
(4a	Schnü-
8g)	.
4g}	-ren.
==	==
!!!AGN: erzaehlendes Volks - Lied, Schalk -, Schelmen - Lied, Liebe, Ballade ?
!!!ONB: ESAC (Essen Associative Code) Database: ERK1
!!!AMT: compound duple
!!!AIN: vox
!!!EED: Helmut Schaffrath
!!!EEV: 1.0
!!!GTL: Schalks- und Schlemenlieder (Liebesabenteuer und betrogene Liebe)
!!!URL-scan: https://rosdok.uni-rostock.de/mcrviewer/recordIdentifier/rosdok_ppn745146120/iview2/phys_0491.iview2?x=-422.27491384562836&y=248.03518177499063&scale=0.554360769283424&rotation=0&layout=singlePageLayout
!!!ENC: Anna Maria Matuszewska
!!!EEV: 2024/03/12
*-	*-
